X:1
T:Miss Robertson of Tullybelton
T:Miss Robertson of Tullybelton
T:Nathaniel Gow
C:Nathaniel Gow
L:1/8
Q:1/8=232
M:4/4
K:Bb
V:1 treble 
V:1
|: D | B,3 B cB GB | FD BD CC/C/ CD | B,3 B cB Gg | fd cd B/B/B BD | B,3 B cB GB | FD BD CC/C/ CD | %7
 B,3 B cB Gg | fd cd B/B/B Bg | fb df Bd fd | ec dB G/G/G Gg | fb df Bd fd | ec fd B/B/B Bg | %13
 fb df Bd fd | ec dB G/G/G GB | FB DB FG Bg | fd cd B/B/B B :| %17

